X: 22
M:2/4
L:1/16
K:Bb
uF2|FBBc Bdfg|fdbg gfdf|gfdB cBGA|BcBG GFFF|
|:((3uFGA)|.B2(df) bagf|dfba gfed|.e2(ed) .c2(cB)|AcBG FDEC|


